forward-electronic/img/company.svg

<svg width="27" height="31" viewBox="0 0 27 31" fill="none" xmlns="http://www.w3.org/2000/svg">
  <path d="M13.6029 17C13.5717 17 13.5405 17 13.5031 17C13.4906 17 13.4782 17 13.4657 17C13.447 17 13.4221 17 13.4034 17C11.5768 16.9673 10.0994 16.2944 9.00846 15.0073C6.60841 12.1718 7.00738 7.31091 7.05102 6.84704C7.20686 3.36472 8.77781 1.69869 10.0745 0.921214C11.0407 0.339739 12.1691 0.0261337 13.4283 0H13.4719C13.4782 0 13.4906 0 13.4969 0H13.5343C14.2263 0 15.5852 0.117602 16.8881 0.895081C18.1973 1.67256 19.7931 3.33859 19.949 6.84704C19.9926 7.31091 20.3916 12.1718 17.9915 15.0073C16.9068 16.2944 15.4294 16.9673 13.6029 17ZM18.2845 7.01038C18.2845 6.99078 18.2783 6.97118 18.2783 6.95811C18.0726 2.27364 14.8995 1.77056 13.5405 1.77056H13.5156C13.5031 1.77056 13.4844 1.77056 13.4657 1.77056C11.7826 1.80976 8.92119 2.52844 8.72794 6.95811C8.72794 6.97771 8.72794 6.99731 8.7217 7.01038C8.71547 7.05611 8.2791 11.4988 10.2615 13.8378C11.047 14.7656 12.0943 15.2229 13.4719 15.236C13.4844 15.236 13.4906 15.236 13.5031 15.236C13.5156 15.236 13.5218 15.236 13.5343 15.236C14.9057 15.2229 15.9593 14.7656 16.7385 13.8378C18.7147 11.5119 18.2908 7.04958 18.2845 7.01038Z" fill="#C4C4C4"/>
  <path d="M0.0018425 24.7842C0.0018425 24.7779 0.0018425 24.7717 0.0018425 24.7654C0.0018425 24.7153 0.00841522 24.6653 0.00841522 24.6089C0.0478535 23.3695 0.133308 20.4713 2.9861 19.5449C3.00582 19.5386 3.03211 19.5324 3.05183 19.5261C6.01637 18.8063 8.48134 17.1788 8.50764 17.16C8.90861 16.8908 9.46076 16.9847 9.74341 17.3666C10.0261 17.7484 9.92746 18.2742 9.52649 18.5434C9.41475 18.6185 6.79859 20.3524 3.52511 21.1536C1.99354 21.6732 1.82264 23.2318 1.77662 24.659C1.77662 24.7153 1.77662 24.7654 1.77005 24.8155C1.76348 25.3789 1.80292 26.249 1.90809 26.7497C2.97296 27.3256 7.14697 29.3162 13.4967 29.3162C19.8202 29.3162 24.0205 27.3193 25.092 26.7435C25.1971 26.2427 25.2432 25.3726 25.23 24.8092C25.23 24.7592 25.2234 24.7091 25.2234 24.6527C25.1774 23.2256 25.0065 21.6669 23.4749 21.1474C20.2015 20.3461 17.5853 18.606 17.4736 18.5371C17.0726 18.2679 16.974 17.7421 17.2566 17.3603C17.5393 16.9785 18.0914 16.8846 18.4924 17.1537C18.5187 17.1725 20.9705 18.8 23.9482 19.5199C23.9745 19.5261 23.9942 19.5324 24.014 19.5386C26.8667 20.4713 26.9522 23.3695 26.9916 24.6027C26.9916 24.659 26.9916 24.7091 26.9982 24.7592C26.9982 24.7654 26.9982 24.7717 26.9982 24.7779C27.0048 25.1034 27.0114 26.7748 26.663 27.6135C26.5972 27.7763 26.4789 27.914 26.3212 28.0079C26.124 28.1331 21.3978 31 13.4902 31C5.58254 31 0.856367 28.1268 0.659168 28.0079C0.507984 27.914 0.383091 27.7763 0.317358 27.6135C-0.0113049 26.781 -0.00473022 25.1097 0.0018425 24.7842Z" fill="#C4C4C4"/>
</svg>

<svg width="27" height="31" fill="none" xmlns="http://www.w3.org/2000/svg"><path d="M13.603 17h-.2c-1.826-.033-3.304-.706-4.395-1.993-2.4-2.835-2-7.696-1.957-8.16.156-3.482 1.727-5.148 3.024-5.926C11.04.34 12.168.026 13.428 0h.106c.692 0 2.051.118 3.354.895 1.31.778 2.905 2.444 3.061 5.952.044.464.443 5.325-1.958 8.16-1.084 1.287-2.562 1.96-4.388 1.993zm4.682-9.99c0-.02-.007-.039-.007-.052-.205-4.684-3.378-5.187-4.737-5.187h-.075c-1.683.039-4.545.757-4.738 5.187 0 .02 0 .04-.006.052-.007.046-.443 4.489 1.54 6.828.785.928 1.832 1.385 3.21 1.398h.062c1.372-.013 2.425-.47 3.204-1.398 1.977-2.326 1.553-6.788 1.547-6.828z" fill="#C4C4C4"/><path d="M.002 24.784v-.019c0-.05.006-.1.006-.156.04-1.24.125-4.138 2.978-5.064l.066-.019c2.964-.72 5.43-2.347 5.456-2.366a.915.915 0 0 1 1.235.207.819.819 0 0 1-.217 1.176c-.111.076-2.727 1.81-6 2.61-1.532.52-1.703 2.079-1.75 3.506 0 .056 0 .106-.006.157-.007.563.033 1.433.138 1.934 1.065.576 5.239 2.566 11.589 2.566 6.323 0 10.523-1.997 11.595-2.572.105-.501.151-1.371.138-1.935 0-.05-.007-.1-.007-.156-.046-1.427-.216-2.986-1.748-3.506-3.274-.8-5.89-2.541-6.001-2.61a.819.819 0 0 1-.217-1.177.915.915 0 0 1 1.235-.206c.027.018 2.479 1.646 5.456 2.366a.598.598 0 0 1 .066.019c2.853.932 2.938 3.83 2.978 5.064 0 .056 0 .106.006.156v.019c.007.325.013 1.997-.335 2.835a.814.814 0 0 1-.342.395c-.197.125-4.923 2.992-12.83 2.992C5.582 31 .855 28.127.658 28.008a.848.848 0 0 1-.342-.395c-.328-.832-.322-2.503-.315-2.829z" fill="#C4C4C4"/></svg>
